X:1
T:Je vouldroye bien
T:Jean Doublet
T:Source : Livre premier contenant 29 chansons nouvelles à 4 parties---Paris---P.Attaignant---1536. Editor : André Vierendeels (29/12/17). Notes : Original clefs : C1, C3, C4, F4 Original note values have been halved Editorial accidentals above the staff Square brackets indicate ligatures
T:Je vouldroye bien
T:©
T:©
T:©
T:©
T:©
T:©
C:Jean Doublet
Z:©
%%score [ 1 [ 2 3 ] 4 ]
L:1/8
Q:1/4=120
M:2/2
K:F
V:1 treble nm="Alto" snm="A"
V:2 treble-8 nm="Tenor 1" snm="T 1"
V:3 treble-8 nm="Tenor 2" snm="T 2"
V:4 bass nm="Bass" snm="B"
V:1
 G3 A Bc B2- | B2 AG F4- | F4 z4 | z2 F2 G2 G2 | F2 F2 B4 | A4 z4 | z2 F2 G2 G2 | F2 F2 B4 | %8
w: Je voul _ _ droy-|* e _ bien,|_|mais que fus-|se con- ten-|te,|mais que fus-|se con- ten-|
 G4 z2 F2 | G2 G2 F2 F2 | B3 A/G/ AGFE | D2 G4 F2 | G8 | z2 D2 D2 F2 | E3 C E2 C2 | D3 E F4- | %16
w: te, mais|que fus- se con-|ten- * * * * * *||te,|a- vec- ques|toy la nuyct quand|vient ge- sir,,|
 F4 z2 G2 | G2 B2 A3 F | A2 G2 G2 G2 | F4 z2 G2- | GFDE F4- | F4 B2 BB | AFGA D4 | z4 B2 BB | %24
w: _ a-|vec- ques toy la|nuyct quand vient ge-|sir, ge-|* * * * sir,|_ tu y au-|rois, et moy aus- sy,|tu y au-|
 AFGA B2 AG | A2 B4 AG | F4 z2 F2 | B2 A2 G2 F2 | G2 A2 B3 A | G2 F2 B2 A2- | AG G4 F2 | G4 z2 F2 | %32
w: rois et moy aus- sy plai- *|sir, _ _ _|_ doeul|ces- se- roit qui|si fort me _|_ tour- men- *||te, doeul|
 B2 A2 G2 F2 | G2 A2 B3 A | G2 F2 B2 A2- | AG G4 F2 | G8 |] %37
w: ces- se- roit qui|si fort me _|_ tour- men- *||te.|
V:2
 z8 | z4 d3 e | fg f4 ed | c2 d4 c2 | d8 | z2 F2 G2 G2 | F2 F2 B2 c2 | d3 c BA d2 | c2 GA Bc d2- | %9
w: |Je voul-|* * droy- * *|* * e|bien,|mais que fus-|se con- ten- *|||
 d2 c2 d3 c | Bcde f4 | z2 d2 d2 f2 | d3 c e2 e2 | d8 | z4 z2 G2 | G2 B2 A3 F | A2 A2 G2 c2 | %17
w: |* * * * te,|a- vec- ques|toy la nuyct quand|vient,|a-|vec- ques toy la|nuict qunq vient ge-|
 B4 z2 c2 | c2 e2 d2 d2 | d2 d2 f2 e2 | d3 B c4 | d4 GABc | ddcA B2 f2 | ffec de f2 | z4 f2 ff | %25
w: sir, a-|vec- ques toy la|nuyct _ quand vient|ge- * sir,|tu y au- rois, et|moy aus- sy plai- sir, tu|y au- rais, et moy aus- sy|tu y au-|
 ffff e2 c2 | d4 z2 d2 | G2 c2 B2 d2- | d2 c2 d4 | z2 F2 G2 A2 | B2 c2 d4 | d4 z2 d2 | %32
w: rois et moy aus- sy plai-|sir, doeul|ces- se- roit qui|_ si fort|me tour- men-||te, doeul|
 G2 c2 B2 d2- | d2 c2 d4 | z2 F2 G2 A2 | B2 c2 d4 | d8 |] %37
w: ces- se- roit, qui|_ si fort|me tour- men-||te.|
V:3
 G4 G4 | B6 AG | A8- | A4 z4 | z2 F2 G2 G2 | F2 F2 B4 | A4 z2 G2 | A2 A2 G2 F2- | F2 E2 F4 | %9
w: Je voul-|droy- e _|bien,|_|mais que fus-|se con- ten-|te, mais|que fus- se con|_ ten- te,|
 z4 z2 F2 | G2 G2 F2 F2 | B4 A4 | G4 z2 G2 | G2 B2 A3 F | A2 A2 G2 E2 | D8 | z8 | z8 | %18
w: mai|que fus- se con-|ten- *|te, a-|vec- ques toy la|nuyct quand vient ge-|sir,|||
 z2 G2 G2 B2 | A3 F AB c2- | cB B4 A2 | B4 z4 | z4 B2 BB | AFGA Bddd | cABc d2 cB | A2 F2 G4 | A8 | %27
w: a- vec- ques|toy la nuyct _ _|_ quand vient ge-|sir,|tu y au-|rois, et moy aus- si, pla- sir, tu|y au- rois, et moy aus- sy,|plai- * *|sir,|
 z4 z2 F2 | B2 A2 G2 F2 | G2 A2 B2 c2 | G4 A4 | G2 B2 A4 | z4 z2 F2 | B2 A2 G2 F2 | G2 A2 B2 c2 | %35
w: doeul|ces- se- roit, qui|si fort me tour-|men- *|* * te,|doeul|ces- se- toit qui|si fort me tour-|
 G4 A4 | G8 |] %37
w: men- *|te.|
V:4
 z8 | z4 D,4 | D,4 F,4- | F,2 E,D, E,4 | D,4 G,,4 | z2 D,2 B,,2 G,,2 | D,2 D,2 _E,4 | D,4 z2 B,,2 | %8
w: |Je|voul- droy|_ _ _ e|_ bien,|mais que fus-|se con- ten-|te, mais|
 C,2 C,2 B,,2 B,,2 |"^b" E,4 D,4 | z2 G,,2 D,2 D,2 | B,,2 G,,2 D,4 | G,,2 C,2 C,2 C,2 | %13
w: que fus- se con-|ten- te,|mais que fus-|se con- ten-|te, a- vec- que|
 G,,2 G,,2 D,2 D,2 | C,4 C,4 | G,,4 z2 D,2 | D,2 F,2 E,3 C, | E,F, G,2 F,4 | C,4 z2 G,,2 | %19
w: toy la nuyct quand|vient ge-|sir, a-|vec- que toy la|nuyct _ _ quant|vient, quand|
 D,2 D,2 D,2 C,2 | G,2 G,2 F,2 F,2 | B,,4 z4 | z4 G,,A,,B,,C, | D,D,C,C, B,,4 | F,2 E,2 D,3 E, | %25
w: vient ge- sir, la|nuyct quand vient ge-|sir,|tu y au- rois,|et moy aus- sy, et|moy aus- sy _|
 F,2 D,2 E,4 | D,8 | z4 z2 D,2 | G,,2 C,2 B,,4 | z2 D,2 G,2 F,2 |"^#" E,2 E,2 D,3 C, | %31
w: _ plai- *|sir,|doeul|ces- ser- roit|qui si fort|me tour- men- *|
 B,,2 G,,2 D,4 | z4 z2 D,2 | G,,2 C,2 B,,4 | z2 D,2 G,2 F,2 |"^b""^b" E,2 E,2 D,4 | G,,8 |] %37
w: * * te,|doeul|ces- se- roit|qui si fort|me tour- men-|te.|

